static/assets/images/exchanges/bilaxy.svg

<svg width="237" height="256" viewBox="0 0 237 256" fill="none" xmlns="http://www.w3.org/2000/svg">
<path d="M134.436 255.181C184.766 226.338 212.115 210.711 216.478 208.299C223.023 204.681 236.407 193.252 236.407 176.177V82.2705C236.407 73.7343 234.225 60.7097 221.57 52.6087C208.912 44.5021 146.221 8.90965 134.581 3.12123C122.945 -2.6672 92.3984 -3.38969 92.3984 27.865V136.531C92.3984 149.985 104.325 161.272 117.27 161.272C130.218 161.272 147.091 153.171 147.091 129.15C147.091 111.642 132.11 106.434 124.691 104.409C117.27 102.383 110.87 100.213 107.235 99.4879C103.597 98.7654 99.8167 96.5951 99.8167 89.649V74.8892C99.8167 71.1288 99.5238 64.3278 109.707 67.5107C119.89 70.6965 137.201 75.6145 144.474 77.3525C151.748 79.0876 181.711 93.2671 181.711 129.295C181.859 164.6 153.201 193.397 117.708 193.539C82.0703 193.539 57.4858 164.313 57.4858 136.676V72.4316C57.4858 59.6971 40.6126 45.2274 30.1394 45.2274C19.6662 45.2274 0.318359 63.8926 0.318359 77.3496V173.719C0.318359 187.608 6.13807 200.05 20.2465 208.299C34.3549 216.548 91.0872 247.8 99.6717 252.72C105.392 256 116.98 256.819 134.436 255.181Z" fill="#5BD9FC"/>
</svg>

<svg xmlns="http://www.w3.org/2000/svg" fill="none" viewBox="0 0 237 256"><path fill="#5BD9FC" d="M134.436 255.181q75.496-43.264 82.042-46.882c6.545-3.618 19.929-15.047 19.929-32.122V82.271c0-8.537-2.182-21.561-14.837-29.662-12.658-8.107-75.349-43.7-86.989-49.488-11.636-5.788-42.183-6.51-42.183 24.744v108.666c0 13.454 11.927 24.741 24.872 24.741 12.948 0 29.821-8.101 29.821-32.122 0-17.508-14.981-22.716-22.4-24.741-7.421-2.026-13.821-4.196-17.456-4.921-3.638-.723-7.418-2.893-7.418-9.839v-14.76c0-3.76-.293-10.561 9.89-7.378 10.183 3.186 27.494 8.104 34.767 9.842 7.274 1.735 37.237 15.914 37.237 51.942.148 35.305-28.51 64.102-64.003 64.244-35.638 0-60.222-29.226-60.222-56.863V72.432c0-12.735-16.873-27.205-27.347-27.205S.32 63.893.32 77.35v96.369c0 13.889 5.82 26.331 19.928 34.58s70.84 39.501 79.425 44.421q8.58 4.919 34.764 2.461"/></svg>
